X: 38915
T: Superfly
R: reel
M: 4/4
K: Bminor
|:Bf ~f2 gfeg|f2 f2 fedB|~e3 f edce|deBA BAFA|
Bf ~f2 gfeg|f z f2 fedf|~e3 f edce|deBA BA z A:|
|:Bcde ~f2 Bc|def/e/d ~g2 Bc|def/e/d a3 f|gfeg fedc|
Bcde ~f2 Bc|defB g z Bc|defd a2 ab|gfeg f2 zc:|

